X: 02021
T: Old Country Bumpkin
R:jig
B:First published in the "Gobblers Opera" 1729
B:In Aird's Collection 1782 as "Bab at the Bowster"
B:RSCDS 2-2
B:Gow I
B:Paddledoo
B:Pinewoods Alternates
Z:2006 by John Chambers <jc:trillian.mit.edu>
M:6/8
L:1/8
K:G
|: "D7"c3 "G"TB3 | "D7"ABG FED | "G"GAG BAB | GAG BAB \
|  "D7"c3 "G"TB3 | "D7"ABA fef | "G"g2d "C"edc | "G"TB3 GAB :|
[| "C"c>de/f/ "G"gdB | "D7"ABG F2D | "G"G2c B/c/dB | G2c B/c/dB \
|  "G"GAB gdB | "D7"A>BA fef | "G"g2d "C"edc | "G"TB3 G2B ||
|| "D7"cAc "G"BGB | "D7"ABG FED | "G"GDG BAB | GDG BAB \
|  "D7"cAc "G"BGB | "D7"ABA fef | "G"g2d "C"edc | "G"TB3 G3 |]
%%center Book02/02021-Old_Country_Bumpkin-1.abc

%%sep 1 1 500
%%sep 1 1 500

